assets/dartboard_white.svg

<?xml version="1.0" encoding="utf-8"?>
<!-- Generator: Adobe Illustrator 24.0.0, SVG Export Plug-In . SVG Version: 6.00 Build 0)  -->
<svg version="1.1" id="Laag_1" xmlns="http://www.w3.org/2000/svg" x="0px" y="0px"
	 viewBox="0 0 1133.9 1133.9" style="enable-background:new 0 0 1133.9 1133.9;" xml:space="preserve">
	<g id="_x38_MVMkz_1_">
	<g>
		<path style="fill:#FFFFFF;" d="M246,564.8c0.6-74.2,24-140.4,71.2-197.6c43.9-53.2,99.7-88.7,167-104.4c87.3-20.4,169-6,244.5,42.6
			c5.2,3.3,5.1,3.4,0.7,7.8c-7.8,7.8-15.6,15.5-23.3,23.4c-2.6,2.7-4.7,3.3-8.1,1.1c-35.6-22.2-74.3-35.2-116-38.8
			c-56.5-4.9-109.7,6.4-158.9,35.1c-47.6,27.8-83.3,66.5-107.2,116.1c-15.1,31.3-23.4,64.3-25.4,99.1
			c-3.3,57.5,10.2,110.8,40.9,159.4c21.3,33.7,49,61.2,82.7,82.7c33.4,21.4,69.8,34.4,109.1,39.5c48.7,6.2,95.8-0.1,140.8-19.8
			c60.8-26.7,105.9-70.3,135-129.9c15.5-31.8,23.8-65.6,25.7-101c2.7-51.8-8.6-100.2-33.6-145.5c-1.9-3.5-3.8-7-6.2-10.3
			c-2-2.8-1.4-4.6,0.9-6.8c8.4-8.1,16.6-16.3,24.8-24.7c2.8-2.9,4.3-3,6.7,0.6c25.7,38.7,41.9,81,48.5,126.8
			c8.6,59.1,1,116.3-23.1,171c-18.8,42.6-45.9,79.1-81.1,109.6c-34.8,30.2-74.3,51.5-118.6,64.2c-35.6,10.2-71.9,13.6-108.8,10.9
			c-51-3.8-98.5-18.8-141.5-46.4C313.9,779,266.2,707.6,250,615.5C247.1,598.8,245.6,581.9,246,564.8z"/>
		<path style="fill:#FFFFFF;" d="M379.6,563.7c0,77.1,46.7,143.5,117.7,169.2c92,33.3,195.7-15.3,227.5-107.9c20.5-59.7,11.5-115.9-25.8-167.2
			c-4.5-6.2-4.6-6.1,0.9-11.6c5.8-5.8,11.5-11.6,17.3-17.3c5.2-5.2,11-4.9,15.6,1c23.8,30.7,38.4,65.3,44,103.7
			c6.7,46.1,0,90.3-21.4,131.5c-34.2,65.9-88.3,106.6-161.6,118.9c-68.8,11.6-130.5-6.5-183.3-52.6c-39.1-34.1-63.3-77.2-71.6-128.3
			c-11.3-69.6,6.2-131.6,52.8-184.7c36.2-41.2,82.1-65.3,136.3-72.7c47.1-6.4,91.9,2,134,24.2c10.9,5.8,21.2,12.5,31,20.1
			c5.9,4.6,6.3,10.3,1,15.6c-6.5,6.5-13.1,12.9-19.4,19.5c-2.6,2.8-4.5,2.7-7.4,0.4c-24.7-19.5-52.7-31.7-84-36
			c-51-6.9-97.1,5.1-137.2,37.4c-36.8,29.6-58.3,68.2-65,115.1C379.9,549.5,379.2,557.4,379.6,563.7z"/>
		<path style="fill:#FFFFFF;" d="M469.3,565.4c0.1,44.4,32.1,81.7,76,87.3c57.5,7.3,100.2-37.7,100.1-86.2c0-16.6-3.8-32-12.2-46.2
			c-2.1-3.5-2-5.7,1-8.6c8.1-7.7,15.9-15.7,23.7-23.7c2.8-2.9,4.4-3,6.9,0.5c41,56.1,29.6,137.6-25.3,180.2
			c-46.8,36.3-109.1,38.7-157,5.3c-33.2-23.2-52.2-55.3-56.5-95.8c-7.1-67.2,39.4-129.7,106-142.5c37.1-7.1,71.1,0.6,102.1,22.2
			c3.2,2.2,3.9,3.8,0.8,6.9c-8.3,8-16.4,16.1-24.4,24.4c-2.5,2.5-4.3,2.5-7.3,0.8c-34.1-19.7-72.5-17-102.6,8
			C479.7,515.3,469.4,538.1,469.3,565.4z"/>
		<path style="fill:#FFFFFF;" d="M545.2,565.6c0.1-5.3,3.1-8.6,6.3-11.9c25.2-25.2,50.4-50.4,75.6-75.6c23.8-23.8,47.6-47.6,71.4-71.3
			c2.7-2.7,3.7-5.3,3-9.3c-2.3-13.5-4-27-6.1-40.5c-0.5-3.1,0.9-5.1,2.8-7c9.5-9.5,19.1-19,28.6-28.6c14.7-14.7,29.4-29.4,44.1-44.1
			c0.7-0.7,1.3-1.5,2.1-2.1c1-0.8,1.7-2.4,3.2-1.9c1.6,0.5,1.2,2.2,1.4,3.5c2.7,17.9,5.4,35.9,7.9,53.9c0.6,4.2,2.2,6,6.5,6.6
			c17.8,2.4,35.6,5.2,53.4,7.8c1.4,0.2,3.4-0.2,4,1.5c0.6,1.7-1.2,2.6-2.2,3.6c-24.7,24.7-49.5,49.4-74.2,74.2
			c-2.5,2.5-4.9,3.3-8.4,2.8c-13.6-2.2-27.3-4-41-6.1c-3.4-0.5-5.3,1-7.4,3.1c-26.6,26.6-53.2,53.3-79.8,79.9
			c-23.2,23.2-46.4,46.4-69.6,69.6c-3.6,3.6-7.7,5.2-12.7,3.7c-4.4-1.4-7.6-4.2-8.6-8.9C545.3,567.3,545.3,566.3,545.2,565.6z"/>
		<path style="fill:#E41D17;" d="M557.8,523c3.5,0.1,7,0,10.4,1.1c4.3,1.4,4.7,2.4,1.5,5.6c-7.6,7.7-15.1,15.5-22.8,23.1
			c-8.1,8-6.9,21.4,2.6,26.9c6.4,3.7,14.8,2,20.5-3.8c7.5-7.7,15.2-15.2,22.9-22.7c3.5-3.4,4.6-3,5.7,1.7
			c3.9,17.1-0.6,31.7-13.9,43.1c-15.2,13.1-33.4,12.3-48.9,4.6c-5.6-2.8-10.1-8.1-13.8-13.5c-9.6-14.1-9.7-29.1-2.1-43.5
			C527.8,530.7,540.6,522.8,557.8,523z"/>
	</g>
</g>
</svg>

<?xml version="1.0" encoding="UTF-8" standalone="no"?>
<!DOCTYPE svg PUBLIC "-//W3C//DTD SVG 1.1//EN" "http://www.w3.org/Graphics/SVG/1.1/DTD/svg11.dtd">
<svg width="100%" height="100%" viewBox="0 0 650 650" version="1.1" xmlns="http://www.w3.org/2000/svg" xmlns:xlink="http://www.w3.org/1999/xlink" xml:space="preserve" xmlns:serif="http://www.serif.com/" style="fill-rule:evenodd;clip-rule:evenodd;stroke-linejoin:round;stroke-miterlimit:2;">
    <g transform="matrix(1.04287,0,0,1.04338,-256.479,-264.827)">
        <g id="_x38_MVMkz_1_">
            <g>
                <path d="M246,564.8C246.6,490.6 270,424.4 317.2,367.2C361.1,314 416.9,278.5 484.2,262.8C571.5,242.4 653.2,256.8 728.7,305.4C733.9,308.7 733.8,308.8 729.4,313.2C721.6,321 713.8,328.7 706.1,336.6C703.5,339.3 701.4,339.9 698,337.7C662.4,315.5 623.7,302.5 582,298.9C525.5,294 472.3,305.3 423.1,334C375.5,361.8 339.8,400.5 315.9,450.1C300.8,481.4 292.5,514.4 290.5,549.2C287.2,606.7 300.7,660 331.4,708.6C352.7,742.3 380.4,769.8 414.1,791.3C447.5,812.7 483.9,825.7 523.2,830.8C571.9,837 619,830.7 664,811C724.8,784.3 769.9,740.7 799,681.1C814.5,649.3 822.8,615.5 824.7,580.1C827.4,528.3 816.1,479.9 791.1,434.6C789.2,431.1 787.3,427.6 784.9,424.3C782.9,421.5 783.5,419.7 785.8,417.5C794.2,409.4 802.4,401.2 810.6,392.8C813.4,389.9 814.9,389.8 817.3,393.4C843,432.1 859.2,474.4 865.8,520.2C874.4,579.3 866.8,636.5 842.7,691.2C823.9,733.8 796.8,770.3 761.6,800.8C726.8,831 687.3,852.3 643,865C607.4,875.2 571.1,878.6 534.2,875.9C483.2,872.1 435.7,857.1 392.7,829.5C313.9,779 266.2,707.6 250,615.5C247.1,598.8 245.6,581.9 246,564.8Z" style="fill:white;fill-rule:nonzero;"/>
                <path d="M379.6,563.7C379.6,640.8 426.3,707.2 497.3,732.9C589.3,766.2 693,717.6 724.8,625C745.3,565.3 736.3,509.1 699,457.8C694.5,451.6 694.4,451.7 699.9,446.2C705.7,440.4 711.4,434.6 717.2,428.9C722.4,423.7 728.2,424 732.8,429.9C756.6,460.6 771.2,495.2 776.8,533.6C783.5,579.7 776.8,623.9 755.4,665.1C721.2,731 667.1,771.7 593.8,784C525,795.6 463.3,777.5 410.5,731.4C371.4,697.3 347.2,654.2 338.9,603.1C327.6,533.5 345.1,471.5 391.7,418.4C427.9,377.2 473.8,353.1 528,345.7C575.1,339.3 619.9,347.7 662,369.9C672.9,375.7 683.2,382.4 693,390C698.9,394.6 699.3,400.3 694,405.6C687.5,412.1 680.9,418.5 674.6,425.1C672,427.9 670.1,427.8 667.2,425.5C642.5,406 614.5,393.8 583.2,389.5C532.2,382.6 486.1,394.6 446,426.9C409.2,456.5 387.7,495.1 381,542C379.9,549.5 379.2,557.4 379.6,563.7Z" style="fill:white;fill-rule:nonzero;"/>
                <path d="M469.3,565.4C469.4,609.8 501.4,647.1 545.3,652.7C602.8,660 645.5,615 645.4,566.5C645.4,549.9 641.6,534.5 633.2,520.3C631.1,516.8 631.2,514.6 634.2,511.7C642.3,504 650.1,496 657.9,488C660.7,485.1 662.3,485 664.8,488.5C705.8,544.6 694.4,626.1 639.5,668.7C592.7,705 530.4,707.4 482.5,674C449.3,650.8 430.3,618.7 426,578.2C418.9,511 465.4,448.5 532,435.7C569.1,428.6 603.1,436.3 634.1,457.9C637.3,460.1 638,461.7 634.9,464.8C626.6,472.8 618.5,480.9 610.5,489.2C608,491.7 606.2,491.7 603.2,490C569.1,470.3 530.7,473 500.6,498C479.7,515.3 469.4,538.1 469.3,565.4Z" style="fill:white;fill-rule:nonzero;"/>
                <path d="M545.2,565.6C545.3,560.3 548.3,557 551.5,553.7C576.7,528.5 601.9,503.3 627.1,478.1C650.9,454.3 674.7,430.5 698.5,406.8C701.2,404.1 702.2,401.5 701.5,397.5C699.2,384 697.5,370.5 695.4,357C694.9,353.9 696.3,351.9 698.2,350C707.7,340.5 717.3,331 726.8,321.4C741.5,306.7 756.2,292 770.9,277.3C771.6,276.6 772.2,275.8 773,275.2C774,274.4 774.7,272.8 776.2,273.3C777.8,273.8 777.4,275.5 777.6,276.8C780.3,294.7 783,312.7 785.5,330.7C786.1,334.9 787.7,336.7 792,337.3C809.8,339.7 827.6,342.5 845.4,345.1C846.8,345.3 848.8,344.9 849.4,346.6C850,348.3 848.2,349.2 847.2,350.2C822.5,374.9 797.7,399.6 773,424.4C770.5,426.9 768.1,427.7 764.6,427.2C751,425 737.3,423.2 723.6,421.1C720.2,420.6 718.3,422.1 716.2,424.2C689.6,450.8 663,477.5 636.4,504.1C613.2,527.3 590,550.5 566.8,573.7C563.2,577.3 559.1,578.9 554.1,577.4C549.7,576 546.5,573.2 545.5,568.5C545.3,567.3 545.3,566.3 545.2,565.6Z" style="fill:white;fill-rule:nonzero;"/>
                <path d="M557.8,523C561.3,523.1 564.8,523 568.2,524.1C572.5,525.5 572.9,526.5 569.7,529.7C562.1,537.4 554.6,545.2 546.9,552.8C538.8,560.8 540,574.2 549.5,579.7C555.9,583.4 564.3,581.7 570,575.9C577.5,568.2 585.2,560.7 592.9,553.2C596.4,549.8 597.5,550.2 598.6,554.9C602.5,572 598,586.6 584.7,598C569.5,611.1 551.3,610.3 535.8,602.6C530.2,599.8 525.7,594.5 522,589.1C512.4,575 512.3,560 519.9,545.6C527.8,530.7 540.6,522.8 557.8,523Z" style="fill:rgb(228,29,23);fill-rule:nonzero;"/>
            </g>
        </g>
    </g>
</svg>
